packages/ui/icons/models/light/sora.svg

<svg width="24" height="24" viewBox="0 0 24 24" fill="none" xmlns="http://www.w3.org/2000/svg">
<g clip-path="url(#clip0_15_5678)">
<path d="M19.503 1.1122e-07H4.496C3.30359 1.1122e-07 2.16001 0.473684 1.31685 1.31685C0.473684 2.16001 1.1122e-07 3.30359 1.1122e-07 4.496V19.503C-0.000131229 20.0935 0.116064 20.6783 0.341951 21.2239C0.567837 21.7694 0.898989 22.2652 1.31649 22.6828C1.734 23.1004 2.22968 23.4317 2.77522 23.6577C3.32077 23.8837 3.90549 24 4.496 24H19.503C20.0936 24.0001 20.6784 23.8839 21.2241 23.658C21.7697 23.432 22.2655 23.1008 22.6832 22.6832C23.1008 22.2655 23.432 21.7697 23.658 21.2241C23.8839 20.6784 24.0001 20.0936 24 19.503V4.496C24 3.90549 23.8837 3.32077 23.6577 2.77522C23.4317 2.22968 23.1004 1.734 22.6828 1.31649C22.2652 0.898989 21.7694 0.567837 21.2239 0.341951C20.6783 0.116064 20.0935 -0.000131229 19.503 1.1122e-07Z" fill="url(#paint0_linear_15_5678)"/>
<path d="M9.72601 11.36C9.80717 11.36 9.885 11.3922 9.94239 11.4496C9.99977 11.507 10.032 11.5848 10.032 11.666C10.032 11.7472 9.99977 11.825 9.94239 11.8824C9.885 11.9398 9.80717 11.972 9.72601 11.972C9.64486 11.972 9.56702 11.9398 9.50964 11.8824C9.45225 11.825 9.42001 11.7472 9.42001 11.666C9.42001 11.5848 9.45225 11.507 9.50964 11.4496C9.56702 11.3922 9.64486 11.36 9.72601 11.36Z" fill="url(#paint1_linear_15_5678)"/>
<path fill-rule="evenodd" clip-rule="evenodd" d="M8.408 9.56101C8.441 9.55201 8.473 9.56301 8.504 9.59401C8.649 9.74401 8.796 9.89201 8.944 10.041L8.965 10.057C8.975 10.062 8.982 10.066 8.989 10.067L9.597 10.224C9.639 10.234 9.665 10.257 9.674 10.29C9.683 10.325 9.672 10.357 9.641 10.388L9.194 10.827C9.18767 10.8336 9.18228 10.841 9.178 10.849C9.17364 10.8565 9.17027 10.8646 9.168 10.873L9.011 11.48C9.001 11.522 8.978 11.548 8.944 11.557C8.91 11.567 8.878 11.555 8.848 11.524L8.408 11.078C8.39466 11.0655 8.37856 11.0562 8.361 11.051C8.159 10.998 7.956 10.946 7.754 10.895C7.712 10.885 7.686 10.862 7.677 10.827C7.667 10.794 7.679 10.761 7.71 10.731C7.86 10.585 8.008 10.439 8.157 10.291C8.16331 10.2848 8.1687 10.2777 8.173 10.27C8.17743 10.2622 8.1808 10.2537 8.183 10.245L8.34 9.63801C8.35 9.59601 8.373 9.57001 8.408 9.56101Z" fill="url(#paint2_linear_15_5678)"/>
<path d="M14.87 9.98201C14.9117 9.97962 14.9535 9.98578 14.9927 10.0001C15.032 10.0144 15.0679 10.0366 15.0983 10.0653C15.1287 10.094 15.1529 10.1286 15.1694 10.167C15.186 10.2054 15.1945 10.2467 15.1945 10.2885C15.1945 10.3303 15.186 10.3716 15.1694 10.41C15.1529 10.4484 15.1287 10.483 15.0983 10.5117C15.0679 10.5404 15.032 10.5626 14.9927 10.5769C14.9535 10.5912 14.9117 10.5974 14.87 10.595C14.7917 10.5905 14.7181 10.5563 14.6643 10.4993C14.6105 10.4423 14.5805 10.3669 14.5805 10.2885C14.5805 10.2101 14.6105 10.1347 14.6643 10.0777C14.7181 10.0207 14.7917 9.98648 14.87 9.98201Z" fill="url(#paint3_linear_15_5678)"/>
<path fill-rule="evenodd" clip-rule="evenodd" d="M13.553 8.18701C13.588 8.17701 13.62 8.18901 13.65 8.21901L14.088 8.66701C14.1012 8.67907 14.1169 8.68796 14.134 8.69301L14.74 8.85101C14.782 8.86101 14.807 8.88401 14.817 8.91901C14.826 8.95201 14.815 8.98401 14.783 9.01401L14.336 9.45201C14.3238 9.46518 14.3145 9.48088 14.309 9.49801L14.152 10.103C14.142 10.145 14.118 10.171 14.084 10.18C14.05 10.189 14.018 10.178 13.988 10.147C13.843 9.99701 13.697 9.84801 13.551 9.70001C13.5446 9.69323 13.5372 9.6875 13.529 9.68301C13.5212 9.67844 13.5128 9.67507 13.504 9.67301L12.899 9.51501C12.857 9.50501 12.831 9.48201 12.822 9.44801C12.813 9.41401 12.824 9.38201 12.855 9.35201C13.005 9.20701 13.153 9.06101 13.302 8.91501C13.3087 8.90857 13.3145 8.90115 13.319 8.89301C13.3235 8.88516 13.3268 8.87675 13.329 8.86801L13.487 8.263C13.497 8.221 13.52 8.19501 13.553 8.18701Z" fill="url(#paint4_linear_15_5678)"/>
<path fill-rule="evenodd" clip-rule="evenodd" d="M9.06499 3.343C9.78732 3.04618 10.5736 2.93912 11.349 3.032C12.349 3.146 13.24 3.572 14.022 4.306C14.0324 4.31612 14.0452 4.32344 14.0592 4.32729C14.0731 4.33113 14.0879 4.33138 14.102 4.328C15.1186 4.06538 16.1948 4.16254 17.148 4.603L17.195 4.624L17.311 4.682C18.3086 5.18739 19.0869 6.04034 19.499 7.08C19.708 7.59 19.813 8.121 19.815 8.675C19.83 9.09 19.785 9.498 19.68 9.899C19.6744 9.91927 19.6742 9.94065 19.6795 9.96101C19.6847 9.98137 19.6953 9.99999 19.71 10.015C20.304 10.621 20.698 11.344 20.893 12.183C21.182 13.609 20.886 14.893 20.006 16.038L19.87 16.204C19.2871 16.8709 18.5221 17.353 17.669 17.591C17.6504 17.5964 17.6335 17.6063 17.6195 17.6197C17.6056 17.6331 17.5951 17.6497 17.589 17.668C17.398 18.219 17.205 18.691 16.848 19.162C15.948 20.348 14.627 21.008 13.137 21C11.95 20.994 10.897 20.56 9.97999 19.698C9.96613 19.6848 9.94896 19.6756 9.9303 19.6714C9.91164 19.6672 9.89218 19.6681 9.87399 19.674C9.48599 19.799 9.09399 19.818 8.67099 19.813C7.99523 19.8075 7.32966 19.6477 6.72499 19.346C6.09167 19.032 5.54038 18.5746 5.11499 18.01C4.96299 17.809 4.81199 17.619 4.70199 17.394C4.55043 17.0853 4.42661 16.7637 4.33199 16.433C4.13226 15.6802 4.12778 14.889 4.31899 14.134C4.32484 14.1163 4.32655 14.0975 4.32399 14.079C4.32064 14.0604 4.31113 14.0435 4.29699 14.031C3.83467 13.5636 3.48126 12.9998 3.26199 12.38C3.11668 11.9982 3.03232 11.596 3.01199 11.188C2.97556 10.6506 3.02313 10.1108 3.15299 9.588C3.48999 8.476 4.13499 7.603 5.08599 6.969C5.29799 6.829 5.49799 6.719 5.68699 6.64C5.90199 6.55 6.11699 6.475 6.33299 6.412C6.34839 6.40747 6.36242 6.39914 6.37377 6.38779C6.38513 6.37643 6.39345 6.36241 6.39799 6.347C6.56157 5.75777 6.84328 5.20796 7.22599 4.731C7.70928 4.11774 8.34272 3.63964 9.06499 3.343ZM9.78799 9.078C8.92299 8.464 7.73999 8.768 7.30499 9.734C7.07899 10.234 7.03499 10.76 7.17199 11.314L7.27999 11.754L7.47499 12.466C7.55499 12.866 7.70699 13.231 7.93399 13.562L7.95599 13.594C8.07599 13.736 8.20799 13.866 8.34999 13.983C9.38899 14.837 10.806 14.267 11.089 12.991L11.126 12.831L11.136 12.771C11.18 12.471 11.166 12.177 11.096 11.889C10.9705 11.3804 10.8338 10.8746 10.686 10.372C10.523 9.818 10.224 9.387 9.78799 9.078ZM15.116 7.843C14.47 7.243 13.473 7.22 12.831 7.824C12.581 8.059 12.406 8.376 12.308 8.773C12.2104 9.17584 12.2104 9.59616 12.308 9.999L12.318 10.039L12.36 10.175C12.455 10.49 12.543 10.8 12.624 11.105C12.709 11.422 12.776 11.635 12.828 11.743C13.258 12.648 14.193 13.299 15.21 12.884C16.156 12.498 16.44 11.377 16.226 10.469C16.1939 10.3316 16.1589 10.1949 16.121 10.059C15.971 9.476 15.865 9.083 15.8 8.88C15.6665 8.4805 15.4307 8.12296 15.116 7.843Z" fill="url(#paint5_linear_15_5678)"/>
</g>
<defs>
<linearGradient id="paint0_linear_15_5678" x1="12" y1="1.1122e-07" x2="12" y2="24" gradientUnits="userSpaceOnUse">
<stop stop-color="#012659"/>
<stop offset="1" stop-color="#0968DA"/>
</linearGradient>
<linearGradient id="paint1_linear_15_5678" x1="9.85901" y1="2.99999" x2="14.219" y2="21.017" gradientUnits="userSpaceOnUse">
<stop stop-color="white"/>
<stop offset="1" stop-color="#6BB6FE"/>
</linearGradient>
<linearGradient id="paint2_linear_15_5678" x1="9.859" y1="3" x2="14.219" y2="21.017" gradientUnits="userSpaceOnUse">
<stop stop-color="white"/>
<stop offset="1" stop-color="#6BB6FE"/>
</linearGradient>
<linearGradient id="paint3_linear_15_5678" x1="9.85899" y1="3.00001" x2="14.219" y2="21.017" gradientUnits="userSpaceOnUse">
<stop stop-color="white"/>
<stop offset="1" stop-color="#6BB6FE"/>
</linearGradient>
<linearGradient id="paint4_linear_15_5678" x1="9.85901" y1="3.00001" x2="14.219" y2="21.017" gradientUnits="userSpaceOnUse">
<stop stop-color="white"/>
<stop offset="1" stop-color="#6BB6FE"/>
</linearGradient>
<linearGradient id="paint5_linear_15_5678" x1="9.85899" y1="3" x2="14.219" y2="21.017" gradientUnits="userSpaceOnUse">
<stop stop-color="white"/>
<stop offset="1" stop-color="#6BB6FE"/>
</linearGradient>
<clipPath id="clip0_15_5678">
<rect width="24" height="24" fill="white"/>
</clipPath>
</defs>
</svg>

<svg height="32" viewBox="0 0 24 24" width="32" xmlns="http://www.w3.org/2000/svg" style="flex: 0 0 auto; line-height: 1;"><title>Sora</title><path d="M19.503 0H4.496A4.496 4.496 0 000 4.496v15.007A4.496 4.496 0 004.496 24h15.007A4.496 4.496 0 0024 19.503V4.496A4.496 4.496 0 0019.503 0z" fill="url(#lobe-icons-sora-fill-0)"></path><path d="M9.726 11.36a.306.306 0 110 .612.306.306 0 010-.612z" fill="url(#lobe-icons-sora-fill-1)"></path><path clip-rule="evenodd" d="M8.408 9.561c.033-.009.065.002.096.033.145.15.292.298.44.447l.021.016c.01.005.017.009.024.01l.608.157c.042.01.068.033.077.066.009.035-.002.067-.033.098l-.447.439a.098.098 0 00-.016.022.1.1 0 00-.01.024l-.157.607c-.01.042-.033.068-.067.077-.034.01-.066-.002-.096-.033l-.44-.446a.117.117 0 00-.047-.027c-.202-.053-.405-.105-.607-.156-.042-.01-.068-.033-.077-.068-.01-.033.002-.066.033-.096.15-.146.298-.292.447-.44a.092.092 0 00.016-.021.101.101 0 00.01-.025l.157-.607c.01-.042.033-.068.068-.077z" fill="url(#lobe-icons-sora-fill-2)" fill-rule="evenodd"></path><path d="M14.87 9.982a.307.307 0 110 .613.307.307 0 010-.613z" fill="url(#lobe-icons-sora-fill-3)"></path><path clip-rule="evenodd" d="M13.553 8.187c.035-.01.067.002.097.032l.438.448a.117.117 0 00.046.026l.606.158c.042.01.067.033.077.068.009.033-.002.065-.034.095l-.447.438a.123.123 0 00-.027.046l-.157.605c-.01.042-.034.068-.068.077-.034.009-.066-.002-.096-.033-.145-.15-.291-.299-.437-.447a.09.09 0 00-.022-.017.09.09 0 00-.025-.01l-.605-.158c-.042-.01-.068-.033-.077-.067-.009-.034.002-.066.033-.096.15-.145.298-.291.447-.437a.093.093 0 00.017-.022.1.1 0 00.01-.025l.158-.605c.01-.042.033-.068.066-.076z" fill="url(#lobe-icons-sora-fill-4)" fill-rule="evenodd"></path><path clip-rule="evenodd" d="M9.065 3.343a4.577 4.577 0 012.284-.311c1 .114 1.891.54 2.673 1.274a.086.086 0 00.08.022 4.549 4.549 0 013.046.275l.047.021.116.058a4.58 4.58 0 012.188 2.398c.209.51.314 1.041.316 1.595.015.415-.03.823-.135 1.224a.12.12 0 00.03.116c.594.606.988 1.329 1.183 2.168.289 1.426-.007 2.71-.887 3.855l-.136.166a4.546 4.546 0 01-2.201 1.387.12.12 0 00-.08.077c-.191.551-.384 1.023-.741 1.494-.9 1.186-2.221 1.846-3.711 1.838-1.187-.006-2.24-.44-3.157-1.302a.106.106 0 00-.106-.024c-.388.125-.78.144-1.203.139a4.44 4.44 0 01-1.946-.467 4.542 4.542 0 01-1.61-1.336c-.152-.201-.303-.391-.413-.616a5.805 5.805 0 01-.37-.961 4.58 4.58 0 01-.013-2.299.122.122 0 00.005-.055.084.084 0 00-.027-.048 4.466 4.466 0 01-1.035-1.651 3.896 3.896 0 01-.25-1.192 5.183 5.183 0 01.141-1.6c.337-1.112.982-1.985 1.933-2.619.212-.14.412-.25.601-.329.215-.09.43-.165.646-.228a.096.096 0 00.065-.065 4.51 4.51 0 01.828-1.616 4.535 4.535 0 011.839-1.388zm.723 5.735c-.865-.614-2.048-.31-2.483.656-.226.5-.27 1.026-.133 1.58l.108.44.195.712c.08.4.232.765.459 1.096l.022.032c.12.142.252.272.394.389 1.039.854 2.456.284 2.739-.992l.037-.16.01-.06c.044-.3.03-.594-.04-.882a35.608 35.608 0 00-.41-1.517c-.163-.554-.462-.985-.898-1.294zm5.328-1.235c-.646-.6-1.643-.623-2.285-.019-.25.235-.425.552-.523.949a2.603 2.603 0 000 1.226l.01.04.042.136c.095.315.183.625.264.93.085.317.152.53.204.638.43.905 1.365 1.556 2.382 1.141.946-.386 1.23-1.507 1.016-2.415a9.78 9.78 0 00-.105-.41c-.15-.583-.256-.976-.321-1.179a2.41 2.41 0 00-.684-1.037z" fill="url(#lobe-icons-sora-fill-5)" fill-rule="evenodd"></path><defs><linearGradient gradientUnits="userSpaceOnUse" id="lobe-icons-sora-fill-0" x1="12" x2="12" y1="0" y2="24"><stop stop-color="#012659"></stop><stop offset="1" stop-color="#0968DA"></stop></linearGradient><linearGradient gradientUnits="userSpaceOnUse" id="lobe-icons-sora-fill-1" x1="9.859" x2="14.219" y1="3" y2="21.017"><stop stop-color="#fff"></stop><stop offset="1" stop-color="#6BB6FE"></stop></linearGradient><linearGradient gradientUnits="userSpaceOnUse" id="lobe-icons-sora-fill-2" x1="9.859" x2="14.219" y1="3" y2="21.017"><stop stop-color="#fff"></stop><stop offset="1" stop-color="#6BB6FE"></stop></linearGradient><linearGradient gradientUnits="userSpaceOnUse" id="lobe-icons-sora-fill-3" x1="9.859" x2="14.219" y1="3" y2="21.017"><stop stop-color="#fff"></stop><stop offset="1" stop-color="#6BB6FE"></stop></linearGradient><linearGradient gradientUnits="userSpaceOnUse" id="lobe-icons-sora-fill-4" x1="9.859" x2="14.219" y1="3" y2="21.017"><stop stop-color="#fff"></stop><stop offset="1" stop-color="#6BB6FE"></stop></linearGradient><linearGradient gradientUnits="userSpaceOnUse" id="lobe-icons-sora-fill-5" x1="9.859" x2="14.219" y1="3" y2="21.017"><stop stop-color="#fff"></stop><stop offset="1" stop-color="#6BB6FE"></stop></linearGradient></defs></svg>
